Origami/24x24/apps/navit.svg

<svg width="24" height="24" version="1" xmlns="http://www.w3.org/2000/svg">
 <path d="m20 21v-18c0-0.554-0.446-1-1-1h-14c-0.554 0-1 0.446-1 1v18c0 0.554 0.446 1 1 1h14c0.554 0 1-0.446 1-1z" fill="#4f4f4f"/>
 <path d="m11 3.5v4h2v-4zm0 7v4h2v-4zm0 7v4h2v-4z" style="opacity:.2"/>
 <path d="m11 3v4h2v-4h-2zm0 7v4h2v-4h-2zm0 7v4h2v-4h-2z" style="fill:#ffffff"/>
 <path d="m5 2c-0.554 0-1 0.446-1 1v0.5c0-0.554 0.446-1 1-1h14c0.554 0 1 0.446 1 1v-0.5c0-0.554-0.446-1-1-1z" fill="#fff" opacity=".1"/>
 <path d="m4 21v0.5c0 0.554 0.446 1 1 1h14c0.554 0 1-0.446 1-1v-0.5c0 0.554-0.446 1-1 1h-14c-0.554 0-1-0.446-1-1z" opacity=".2"/>
 <circle cx="17.5" cy="17.5" r="5.5" fill-rule="evenodd" style="fill:#3f8ce6"/>
 <path d="m17 13v1.041016a3.5 3.5 0 0 0 -2.960938 2.958984h-1.039062v1h1.041016a3.5 3.5 0 0 0 2.958984 2.960938v1.039062h1v-1.041016a3.5 3.5 0 0 0 2.960938 -2.958984h1.039062v-1h-1.041016a3.5 3.5 0 0 0 -2.958984 -2.960938v-1.039062h-1zm0.5 3a1.5 1.5 0 0 1 1.5 1.5 1.5 1.5 0 0 1 -1.5 1.5 1.5 1.5 0 0 1 -1.5 -1.5 1.5 1.5 0 0 1 1.5 -1.5z" style="fill:#ffffff"/>
</svg>

<svg xmlns="http://www.w3.org/2000/svg" width="24" height="24" version="1">
 <path fill="#4f4f4f" d="m20 21v-18c0-0.554-0.446-1-1-1h-14c-0.554 0-1 0.446-1 1v18c0 0.554 0.446 1 1 1h14c0.554 0 1-0.446 1-1z"/>
 <path style="opacity:0.2" d="m 11,3.5 v 4 h 2 v -4 z m 0,7 v 4 h 2 v -4 z m 0,7 v 4 h 2 v -4 z"/>
 <path style="fill:#ffffff" d="M 11 3 L 11 7 L 13 7 L 13 3 L 11 3 z M 11 10 L 11 14 L 13 14 L 13 10 L 11 10 z M 11 17 L 11 21 L 13 21 L 13 17 L 11 17 z"/>
 <path fill="#fff" opacity=".1" d="m5 2c-0.554 0-1 0.446-1 1v0.5c0-0.554 0.446-1 1-1h14c0.554 0 1 0.446 1 1v-0.5c0-0.554-0.446-1-1-1z"/>
 <path opacity=".2" d="m4 21v0.5c0 0.554 0.446 1 1 1h14c0.554 0 1-0.446 1-1v-0.5c0 0.554-0.446 1-1 1h-14c-0.554 0-1-0.446-1-1z"/>
 <circle fill-rule="evenodd" style="fill:#3f8ce6" cx="17.5" cy="17.5" r="5.5"/>
 <path style="fill:#ffffff" d="M 17 13 L 17 14.041016 A 3.5 3.5 0 0 0 14.039062 17 L 13 17 L 13 18 L 14.041016 18 A 3.5 3.5 0 0 0 17 20.960938 L 17 22 L 18 22 L 18 20.958984 A 3.5 3.5 0 0 0 20.960938 18 L 22 18 L 22 17 L 20.958984 17 A 3.5 3.5 0 0 0 18 14.039062 L 18 13 L 17 13 z M 17.5 16 A 1.5 1.5 0 0 1 19 17.5 A 1.5 1.5 0 0 1 17.5 19 A 1.5 1.5 0 0 1 16 17.5 A 1.5 1.5 0 0 1 17.5 16 z"/>
</svg>
